azure-docs/api_computer_vision.svg

<?xml version="1.0" encoding="UTF-8"?>
<svg width="512px" height="512px" viewBox="0 0 512 512" version="1.1" xmlns="http://www.w3.org/2000/svg" xmlns:xlink="http://www.w3.org/1999/xlink">
    <!-- Generator: Sketch 46.2 (44496) - http://www.bohemiancoding.com/sketch -->
    <title>ComputerVision-wht-bluBG-512p</title>
    <desc>Created with Sketch.</desc>
    <defs></defs>
    <g id="PRODUCTION-ICONS" stroke="none" stroke-width="1" fill="none" fill-rule="evenodd">
        <g id="ComputerVision-wht-bluBG-512p">
            <g id="Computer-Vision-API">
                <rect id="Rectangle-3-Copy-2" fill="#0063B1" x="0" y="0" width="512" height="512"></rect>
                <path d="M255.345664,136.533333 C301.162054,136.533333 343.643418,153.771371 377.533726,182.230863 C405.956243,206.098762 425.378891,236.062704 425.378891,256.082955 C425.378891,276.104509 405.958542,305.951782 377.512347,329.720915 C343.636173,358.027243 301.157539,375.168498 255.345664,375.168498 C209.765174,375.168498 167.462583,357.172179 133.066025,327.590423 C105.255006,303.672367 85.3333333,273.722188 85.3333333,256.082955 C85.3333333,238.445347 105.257505,208.375321 133.045403,184.361227 C167.453569,154.625945 209.75851,136.533333 255.345664,136.533333 Z M255.345664,159.288889 C215.65267,159.288889 178.447684,175.200396 147.92437,201.578417 C124.666056,221.678079 108.088889,246.696727 108.088889,256.082955 C108.088889,265.444547 124.644558,290.334288 147.903748,310.337675 C178.418376,336.58089 215.633587,352.412942 255.345664,352.412942 C295.512097,352.412942 332.94255,337.308762 362.921433,312.258941 C386.706148,292.384857 402.623336,267.921619 402.623336,256.082955 C402.623336,244.219983 386.683724,219.629433 362.900055,199.657021 C332.91017,174.472922 295.490689,159.288889 255.345664,159.288889 Z" id="Stroke-1-Copy-2" fill="#FFFFFF" fill-rule="nonzero"></path>
                <polygon id="Fill-3-Copy" fill="#FFFFFF" points="287.857778 257.184022 341.039476 257.184022 341.039476 201.025032 287.857778 201.025032"></polygon>
            </g>
        </g>
    </g>
</svg>

<svg width="512" height="512" xmlns="http://www.w3.org/2000/svg"><g fill="none" fill-rule="evenodd"><path fill="#0063B1" d="M0 0h512v512H0z"/><path d="M255.346 136.533c45.816 0 88.297 17.238 122.188 45.698 28.422 23.868 47.845 53.832 47.845 73.852 0 20.022-19.42 49.869-47.867 73.638-33.876 28.306-76.354 45.447-122.166 45.447-45.58 0-87.883-17.996-122.28-47.578-27.811-23.918-47.733-53.868-47.733-71.507 0-17.638 19.925-47.708 47.712-71.722 34.409-29.735 76.714-47.828 122.3-47.828zm0 22.756c-39.693 0-76.898 15.911-107.422 42.29-23.258 20.1-39.835 45.118-39.835 54.504 0 9.362 16.556 34.251 39.815 54.255 30.514 26.243 67.73 42.075 107.442 42.075 40.166 0 77.597-15.104 107.575-40.154 23.785-19.874 39.702-44.337 39.702-56.176 0-11.863-15.94-36.454-39.723-56.426-29.99-25.184-67.41-40.368-107.554-40.368z" fill="#FFF" fill-rule="nonzero"/><path fill="#FFF" d="M287.858 257.184h53.181v-56.159h-53.181z"/></g></svg>
